X:14
T:Cattle In The Cane
S:Bernie Waugh
R:Reel
M:2/4
L:1/16
K:Am
|:cB|\
"Am"A2{G}A2 A,3B,|CEDC A,2 (3G,A,B,|"C (or F)"C2CD EDCD|EGcG Aceg|
"Am (D)"agab aged|ceec "(F)"dcAG|"C"c2ed "Dm"dcAF|1"Em"EDEG "Am"A2:|2\
EDEG "Am"A4||
K:A Mixolydian
|:\
"A"ce2e e2 ed|Aceg fecA|"G"Bd2d d2 dA|BAGA BcdB|
"A (or D)"ce2e efed|cdef gfef|"C"gbfa "D"edBG|"E"EA2A "A"A4:|

